icons/desktop/16/svg/sidebar-right-16.svg

<svg width="16" height="16" viewBox="0 0 16 16" fill="none" xmlns="http://www.w3.org/2000/svg">
<path d="M12.25 9C12.6642 9 13 9.33579 13 9.75C13 10.1642 12.6642 10.5 12.25 10.5H10.75C10.3358 10.5 10 10.1642 10 9.75C10 9.33579 10.3358 9 10.75 9H12.25Z" fill="black"/>
<path d="M12.25 5.5C12.6642 5.5 13 5.83579 13 6.25C13 6.66421 12.6642 7 12.25 7H10.75C10.3358 7 10 6.66421 10 6.25C10 5.83579 10.3358 5.5 10.75 5.5H12.25Z" fill="black"/>
<path fill-rule="evenodd" clip-rule="evenodd" d="M8 2C9.4553 2 11.0559 2.05884 12.7773 2.21289L13.5225 2.28516L13.7812 2.32422C15.0525 2.57884 16 3.69884 16 5.02539V10.9746C16 12.3741 14.9513 13.5653 13.5459 13.7119C11.8584 13.8874 10.0011 14 8 14C6.33683 14 4.48373 13.9228 2.47754 13.7148C1.07827 13.5696 0 12.3897 0 10.9746V5.02539C0 3.62588 1.04865 2.43465 2.4541 2.28809C4.14156 2.11265 5.99888 2 8 2ZM8.5 12.4961C10.255 12.4791 11.8916 12.3756 13.3906 12.2197C14.0189 12.154 14.5 11.6189 14.5 10.9746V5.02539C14.5 4.38652 14.0099 3.84407 13.3672 3.77734C11.6163 3.59589 9.98531 3.52012 8.5 3.50586V12.4961ZM7 3.50977C5.4334 3.54002 3.96516 3.63932 2.60938 3.78027C1.9811 3.84597 1.5 4.38109 1.5 5.02539V10.9746C1.5 11.6135 1.99009 12.1559 2.63281 12.2227C4.18935 12.384 5.65112 12.4614 7 12.4873V3.50977Z" fill="black"/>
</svg>

<!-- This Source Code Form is subject to the terms of the Mozilla Public
   - License, v. 2.0. If a copy of the MPL was not distributed with this
   - file, You can obtain one at http://mozilla.org/MPL/2.0/. -->
<svg xmlns="http://www.w3.org/2000/svg" width="16" height="16" fill="context-fill" fill-opacity="context-fill-opacity" viewBox="0 0 16 16">
    <path d="M12.25 9a.75.75 0 0 1 0 1.5h-1.5a.75.75 0 0 1 0-1.5zM12.25 5.5a.75.75 0 0 1 0 1.5h-1.5a.75.75 0 0 1 0-1.5z" />
    <path fill-rule="evenodd" d="M8 2c1.455 0 3.056.059 4.777.213l.746.072.258.04A2.76 2.76 0 0 1 16 5.024v5.95c0 1.4-1.049 2.59-2.454 2.737a53.6 53.6 0 0 1-11.068.003A2.76 2.76 0 0 1 0 10.975v-5.95c0-1.4 1.049-2.59 2.454-2.737A54 54 0 0 1 8 2m.5 10.496a52 52 0 0 0 4.89-.276c.629-.066 1.11-.601 1.11-1.245v-5.95c0-.638-.49-1.18-1.133-1.248A52 52 0 0 0 8.5 3.506zM7 3.51c-1.567.03-3.035.13-4.39.27-.629.066-1.11.601-1.11 1.245v5.95c0 .639.49 1.18 1.133 1.248A52 52 0 0 0 7 12.487z" clip-rule="evenodd" />
</svg>
